src/assets/imgs/profit-one-page/bg-m.svg

<svg width="690" height="2395" viewBox="0 0 690 2395" fill="none" xmlns="http://www.w3.org/2000/svg">
<mask id="mask0" mask-type="alpha" maskUnits="userSpaceOnUse" x="0" y="0" width="690" height="2395">
<rect width="690" height="2395" fill="#C4C4C4"/>
</mask>
<g mask="url(#mask0)">
<g filter="url(#filter0_d)">
<path d="M5.96613e-05 46.3281C236.441 65.4644 602.601 68.9895 690.001 46.3286C690.001 116.829 690.001 2261.05 690.001 2344.64C510.601 2369.82 98.4408 2364.79 0.000848338 2338.6C0.000736034 2266.59 -0.000249182 504.078 5.96613e-05 46.3281Z" fill="#942FE5"/>
</g>
<g filter="url(#filter1_d)">
<path d="M0.000466363 362.574C0.000172269 197.401 0.000368973 146.114 0.000368973 56.4009C99.3604 66.4719 512.44 99.2043 690 57.4075C690 195.891 690 2267.09 690 2339.1C679.88 2341.12 267.72 2371.33 0.000449219 2326.01C0.000449219 2211.15 0.000481278 2060.12 8.82118e-05 1969.48C-0.000304855 1878.84 0.000760456 527.746 0.000466363 362.574Z" fill="url(#paint0_radial)"/>
</g>
</g>
<defs>
<filter id="filter0_d" x="-10" y="40.3281" width="710.001" height="2334.78" filterUnits="userSpaceOnUse" color-interpolation-filters="sRGB">
<feFlood flood-opacity="0" result="BackgroundImageFix"/>
<feColorMatrix in="SourceAlpha" type="matrix" values="0 0 0 0 0 0 0 0 0 0 0 0 0 0 0 0 0 0 127 0"/>
<feOffset dy="4"/>
<feGaussianBlur stdDeviation="5"/>
<feColorMatrix type="matrix" values="0 0 0 0 0 0 0 0 0 0 0 0 0 0 0 0 0 0 0.25 0"/>
<feBlend mode="normal" in2="BackgroundImageFix" result="effect1_dropShadow"/>
<feBlend mode="normal" in="SourceGraphic" in2="effect1_dropShadow" result="shape"/>
</filter>
<filter id="filter1_d" x="-4" y="56.4009" width="698" height="2302.43" filterUnits="userSpaceOnUse" color-interpolation-filters="sRGB">
<feFlood flood-opacity="0" result="BackgroundImageFix"/>
<feColorMatrix in="SourceAlpha" type="matrix" values="0 0 0 0 0 0 0 0 0 0 0 0 0 0 0 0 0 0 127 0"/>
<feOffset dy="4"/>
<feGaussianBlur stdDeviation="2"/>
<feColorMatrix type="matrix" values="0 0 0 0 0 0 0 0 0 0 0 0 0 0 0 0 0 0 0.25 0"/>
<feBlend mode="normal" in2="BackgroundImageFix" result="effect1_dropShadow"/>
<feBlend mode="normal" in="SourceGraphic" in2="effect1_dropShadow" result="shape"/>
</filter>
<radialGradient id="paint0_radial" cx="0" cy="0" r="1" gradientUnits="userSpaceOnUse" gradientTransform="translate(121.089 818.498) rotate(32.4224) scale(3917.03 2705.8)">
<stop stop-color="#414141"/>
<stop offset="1"/>
</radialGradient>
</defs>
</svg>

<svg fill="none" height="2395" viewBox="0 0 690 2395" width="690" xmlns="http://www.w3.org/2000/svg" xmlns:xlink="http://www.w3.org/1999/xlink"><filter id="a" color-interpolation-filters="sRGB" filterUnits="userSpaceOnUse" height="2334.78" width="710.001" x="-10" y="40.3281"><feFlood flood-opacity="0" result="BackgroundImageFix"/><feColorMatrix in="SourceAlpha" type="matrix" values="0 0 0 0 0 0 0 0 0 0 0 0 0 0 0 0 0 0 127 0"/><feOffset dy="4"/><feGaussianBlur stdDeviation="5"/><feColorMatrix type="matrix" values="0 0 0 0 0 0 0 0 0 0 0 0 0 0 0 0 0 0 0.25 0"/><feBlend in2="BackgroundImageFix" mode="normal" result="effect1_dropShadow"/><feBlend in="SourceGraphic" in2="effect1_dropShadow" mode="normal" result="shape"/></filter><filter id="b" color-interpolation-filters="sRGB" filterUnits="userSpaceOnUse" height="2302.43" width="698" x="-4" y="56.4009"><feFlood flood-opacity="0" result="BackgroundImageFix"/><feColorMatrix in="SourceAlpha" type="matrix" values="0 0 0 0 0 0 0 0 0 0 0 0 0 0 0 0 0 0 127 0"/><feOffset dy="4"/><feGaussianBlur stdDeviation="2"/><feColorMatrix type="matrix" values="0 0 0 0 0 0 0 0 0 0 0 0 0 0 0 0 0 0 0.25 0"/><feBlend in2="BackgroundImageFix" mode="normal" result="effect1_dropShadow"/><feBlend in="SourceGraphic" in2="effect1_dropShadow" mode="normal" result="shape"/></filter><radialGradient id="c" cx="0" cy="0" gradientTransform="matrix(3306.43700816 2100.14245516 -1450.73319713 2284.0155058 121.089 818.498)" gradientUnits="userSpaceOnUse" r="1"><stop offset="0" stop-color="#414141"/><stop offset="1"/></radialGradient><mask id="d" height="2395" maskUnits="userSpaceOnUse" width="690" x="0" y="0"><path d="m0 0h690v2395h-690z" fill="#c4c4c4"/></mask><g mask="url(#d)"><g filter="url(#a)"><path d="m.00005966 46.3281c236.44094034 19.1363 602.60094034 22.6614 690.00094034.0005v2298.3114c-179.4 25.18-591.5602 20.15-690.00015166-6.04-.00011231-72.01-.00109752-1834.522-.00078868-2292.2719z" fill="#942fe5"/></g><g filter="url(#b)"><path d="m.00046636 362.574c-.00029409-165.173-.00009739-216.46-.00009739-306.1731 99.36003103 10.071 512.43963103 42.8034 689.99963103 1.0066v2281.6925c-10.12 2.02-422.28 32.23-689.99955078-13.09 0-114.86.00003206-265.89-.00036101-356.53-.00039306-90.64.00067225-1441.734.00037815-1606.906z" fill="url(#c)"/></g></g></svg>
